X:1
T:Our World Belongs to God
T:Tune: John D. Edwards, c. 1840 Text under copyright; for copyrighted material see Psalter Hymnal 459
T:66 66 888 RHOSYMEDRE www.hymnary.org/text/our_world_belongs_to_god
T:Our World Belongs to God
T:This tune is in the public domain. You may freely use this score for personal and congregational worship. If you reproduce the score, please credit Hymnary.org as the source. 
T:This tune is in the public domain. You may freely use this score for personal and congregational worship. If you reproduce the score, please credit Hymnary.org as the source. 
Z:This tune is in the public domain. You may freely use this score for personal and congregational worship. If you reproduce the score, please credit Hymnary.org as the source.
%%score ( 1 2 ) ( 3 4 5 )
L:1/8
M:4/4
K:F
V:1 treble nm="SOPRANO ALTO" snm="S. A."
V:2 treble 
V:3 bass nm="TENOR BASS" snm="T. B."
V:4 bass 
V:5 bass 
V:1
 C2 | F2 F2 G2 G2 | A6 F2 | B2 B2 A2 G2 | F6 | C2 | F2 F2 G2 G2 | A6 F2 | B2 B2 A2 G2 | F6 | c2 | %11
 A2 A2 A2 c2 | B4 A4 | G6 c2 | B2 A2 G2 |1 F2 | E2 F2 G2 E2 | F2 G2 A2 B2 | A4 G4 | F6 x2 |] %20
V:2
 C2 | C2 F2 F2 E2 | F6 F2 | F2 F2 F2 E2 | F6 | C2 | C2 F2 F2 E2 | F6 F2 | F2 F2 F2 E2 | F6 | C2 | %11
 C2 C2 D2 C2 | D4 C4 | C6 C2 | F2 C2 C2 |1 C2 | C2 C2 C2 C2 | C2 C2 C2 D2 | C4 (C2 B,2) | A,6 x2 |] %20
V:3
 x2 | x8 | x8 | x8 | x6 | x2 | x8 | x8 | x8 | x6 | x2 | x8 | x8 | x8 | x6 |1 x2 | x8 | x8 | x8 | %19
 F,,6 x2 |] %20
V:4
 A,2 | A,2 A,2 C2 C2 | C6 A,2 | B,2 D2 C2 B,2 | A,6 | A,2 | A,2 A,2 C2 C2 | C6 A,2 | %8
 B,2 D2 C2 B,2 | A,6 | G,2 | F,2 F,2 F,2 F,2 | F,4 F,4 | E,6 F,2 | F,2 F,2 E,2 |1 F,2 | %16
 B,2 A,2 E,2 G,2 | F,2 E,2 F,2 F,2 | F,4 E,4 | F,6 x2 |] %20
V:5
 F,2 | F,2 D,2 C,2 C,2 | F,6 F,2 | D,2 B,,2 C,2 C,2 | F,6 | F,2 | F,2 D,2 C,2 C,2 | F,6 F,2 | %8
 D,2 B,,2 C,2 C,2 | F,6 | E,2 | F,2 F,2 D,2 A,,2 | B,,4 F,,4 | C,6 A,,2 | D,2 C,2 B,,2 |1 A,,2 | %16
 G,,2 F,,2 C,2 B,,2 | A,,2 C,2 F,2 B,,2 | C,4 C,4 | x6 x2 |] %20

